shader fractal(
    float creal = 0,
    float cimag = 0,
    point position = P,
    output color fractalcolor = 0
){
    float real = position[0] - 2;
    float imag = position[1] - 2;
    
    for(float i = 0; i < 255; i++){
    
        float realtemp = real;
        real = real * real - imag * imag + creal;
        imag = 2 * realtemp * imag + cimag;
        
        if( sqrt( real * real + imag * imag) > 4 ){
            fractalcolor = i / 255;
        }
    }
}